launcher/android/assets/skins/day/svg/plus.svg

<svg enable-background="new 0 0 150.00 78.25" height="78.25" viewBox="0 0 150 78.25" width="150" xmlns="http://www.w3.org/2000/svg" xmlns:xlink="http://www.w3.org/1999/xlink"><linearGradient id="a" gradientTransform="matrix(0 1 -1 0 -9.06931 -10.06931)" gradientUnits="objectBoundingBox" x1=".5" x2="20.6386" y1="-9.56931" y2="-9.56931"><stop offset=".427907" stop-color="#eeeaea"/><stop offset=".576744" stop-color="#fff" stop-opacity="0"/></linearGradient><radialGradient id="b" cx="90.1248" cy="27.9583" gradientTransform="matrix(.866024967452 -.50000075575 .50000075575 .866024967452 -1.904715319281 48.808212061131)" gradientUnits="userSpaceOnUse" r="39"><stop offset="0" stop-color="#4d5735" stop-opacity=".403922"/><stop offset="1" stop-color="#273110" stop-opacity=".403922"/></radialGradient><radialGradient id="c" cx="90.1248" cy="27.9583" gradientTransform="matrix(.866024967452 -.50000075575 .50000075575 .866024967452 -1.904715319281 48.808212061131)" gradientUnits="userSpaceOnUse" r="39"><stop offset="0" stop-color="#a8aebd" stop-opacity=".403922"/><stop offset=".274419" stop-color="#a2a8b7" stop-opacity=".403922"/><stop offset=".967442" stop-color="#142935" stop-opacity=".403922"/><stop offset="1" stop-color="#102531" stop-opacity=".403922"/></radialGradient><radialGradient id="d" cx="128.792" cy="58.2917" gradientUnits="userSpaceOnUse" r="7.33337"><stop offset="0" stop-color="#4d5735"/><stop offset="1" stop-color="#273110"/></radialGradient><g stroke-linejoin="round"><path d="m-112.083.5h222.75c21.332 0 38.625 17.293 38.625 38.625l0 0c0 21.332-17.293 38.625-38.625 38.625h-222.75c-21.332 0-38.625-17.293-38.625-38.625l0 0c0-21.332 17.293-38.625 38.625-38.625z" fill="#8c9e64" stroke="#000"/><path d="m103.639 1.18752h-209.511c-5.547 0-10.841.28419-15.684.80026-7.349 1.83955-13.862 5.78399-18.864 11.15542 5.249 1.1958 12.095 1.9193 19.583 1.9193h240.867c7.201 0 13.809-.6692 18.973-1.7842-4.899-5.31131-11.268-9.24518-18.463-11.15488-5.168-.60169-10.886-.9359-16.901-.9359z" fill="url(#a)" stroke-width=".2"/><path d="m121.258 42.855h-9.12v9.12h-4.8v-9.12h-9.1198v-4.8h9.1198v-9.12h4.8v9.12h9.12z" stroke-width=".2"/><path d="m109.625 22.9583c9.941 0 18 8.059 18 18 0 9.9412-8.059 18-18 18-9.9412 0-18.0001-8.0588-18.0001-18 0-9.941 8.0589-18 18.0001-18z" fill="url(#c)" stroke="url(#b)" stroke-width="3"/><path d="m122.958 53.2083 11.667 10.1667" fill="none" stroke="url(#d)" stroke-width="3"/></g></svg>

﻿<?xml version="1.0" encoding="utf-8"?>
<!DOCTYPE svg PUBLIC "-//W3C//DTD SVG 1.1//EN" "http://www.w3.org/Graphics/SVG/1.1/DTD/svg11.dtd">
<svg xmlns="http://www.w3.org/2000/svg" xmlns:xlink="http://www.w3.org/1999/xlink" version="1.1" baseProfile="full" width="150" height="78.25" viewBox="0 0 150.00 78.25" enable-background="new 0 0 150.00 78.25" xml:space="preserve">
	<path fill="#8C9E64" fill-opacity="1" stroke-linejoin="round" stroke="#000000" stroke-opacity="1" d="M -112.083,0.5L 110.667,0.5C 131.999,0.5 149.292,17.793 149.292,39.125L 149.292,39.125C 149.292,60.457 131.999,77.75 110.667,77.75L -112.083,77.75C -133.415,77.75 -150.708,60.457 -150.708,39.125L -150.708,39.125C -150.708,17.793 -133.415,0.5 -112.083,0.5 Z "/>
	<linearGradient id="SVGID_Fill1_" gradientUnits="objectBoundingBox" x1="0.5" y1="-9.56931" x2="20.6386" y2="-9.56931" gradientTransform="rotate(90.000000 0.500000 -9.569310)">
		<stop offset="0.427907" stop-color="#EEEAEA" stop-opacity="1"/>
		<stop offset="0.576744" stop-color="#FFFFFF" stop-opacity="0"/>
	</linearGradient>
	<path fill="url(#SVGID_Fill1_)" stroke-width="0.2" stroke-linejoin="round" d="M 103.639,1.18752L -105.872,1.18752C -111.419,1.18752 -116.713,1.47171 -121.556,1.98778C -128.905,3.82733 -135.418,7.77177 -140.42,13.1432C -135.171,14.339 -128.325,15.0625 -120.837,15.0625L 120.03,15.0625C 127.231,15.0625 133.839,14.3933 139.003,13.2783C 134.104,7.96699 127.735,4.03312 120.54,2.12342C 115.372,1.52173 109.654,1.18752 103.639,1.18752 Z "/>
	<g>
		<g>
			<path fill="#000000" fill-opacity="1" stroke-width="0.2" stroke-linejoin="round" d="M 121.258,42.855L 112.138,42.855L 112.138,51.975L 107.338,51.975L 107.338,42.855L 98.2182,42.855L 98.2182,38.055L 107.338,38.055L 107.338,28.935L 112.138,28.935L 112.138,38.055L 121.258,38.055L 121.258,42.855 Z "/>
		</g>
		<radialGradient id="SVGID_Stroke1_" cx="90.1248" cy="27.9583" r="39" gradientUnits="userSpaceOnUse" gradientTransform="rotate(-30.000050 90.124847 27.958347)">
			<stop offset="0" stop-color="#4D5735" stop-opacity="0.403922"/>
			<stop offset="1" stop-color="#273110" stop-opacity="0.403922"/>
		</radialGradient>
		<radialGradient id="SVGID_Fill2_" cx="90.1248" cy="27.9583" r="39" gradientUnits="userSpaceOnUse" gradientTransform="rotate(-30.000050 90.124847 27.958347)">
			<stop offset="0" stop-color="#A8AEBD" stop-opacity="0.403922"/>
			<stop offset="0.274419" stop-color="#A2A8B7" stop-opacity="0.403922"/>
			<stop offset="0.967442" stop-color="#142935" stop-opacity="0.403922"/>
			<stop offset="1" stop-color="#102531" stop-opacity="0.403922"/>
		</radialGradient>
		<path fill="url(#SVGID_Fill2_)" stroke-width="3" stroke-linejoin="round" stroke="url(#SVGID_Stroke1_)" d="M 109.625,22.9583C 119.566,22.9583 127.625,31.0173 127.625,40.9583C 127.625,50.8995 119.566,58.9583 109.625,58.9583C 99.6838,58.9583 91.6249,50.8995 91.6249,40.9583C 91.6249,31.0173 99.6838,22.9583 109.625,22.9583 Z "/>
		<radialGradient id="SVGID_Stroke2_" cx="128.792" cy="58.2917" r="7.33337" gradientUnits="userSpaceOnUse">
			<stop offset="0" stop-color="#4D5735" stop-opacity="1"/>
			<stop offset="1" stop-color="#273110" stop-opacity="1"/>
		</radialGradient>
		<line fill="none" stroke-width="3" stroke-linejoin="round" stroke="url(#SVGID_Stroke2_)" x1="122.958" y1="53.2083" x2="134.625" y2="63.375"/>
	</g>
</svg>
